gama.ui.shared/icons_svg/dark/display/zoom.in.svg

<?xml version="1.0" encoding="UTF-8" standalone="no"?>
<!DOCTYPE svg PUBLIC "-//W3C//DTD SVG 1.1//EN" "http://www.w3.org/Graphics/SVG/1.1/DTD/svg11.dtd">
<svg xmlns="http://www.w3.org/2000/svg" xmlns:xl="http://www.w3.org/1999/xlink" version="1.1" xmlns:dc="http://purl.org/dc/elements/1.1/" viewBox="-417.8305 -3314.1597 25.000035 25" width="25.000035" height="25">
  <defs/>
  <g id="SOURCES" stroke-opacity="1" fill="none" stroke="none" fill-opacity="1" stroke-dasharray="none">
    <title>SOURCES</title>
    <g id="SOURCES_Dark">
      <title>Dark</title>
      <g id="Graphic_11494">
        <circle cx="-405.3305" cy="-3301.6597" r="12.0000278184556" fill="#666"/>
        <circle cx="-405.3305" cy="-3301.6597" r="12.0000278184556" stroke="white" stroke-linecap="round" stroke-linejoin="round" stroke-width=".2500004"/>
      </g>
      <g id="Graphic_11493">
        <path d="M -404.8305 -3302.1597 L -399.3305 -3302.1597 C -399.0505 -3302.1597 -398.8305 -3301.9397 -398.8305 -3301.6597 C -398.8305 -3301.3797 -399.0505 -3301.1597 -399.3305 -3301.1597 L -404.8305 -3301.1597 L -404.8305 -3295.6597 C -404.8305 -3295.3797 -405.0505 -3295.1597 -405.3305 -3295.1597 C -405.6105 -3295.1597 -405.8305 -3295.3797 -405.8305 -3295.6597 L -405.8305 -3301.1597 L -411.3305 -3301.1597 C -411.6105 -3301.1597 -411.8305 -3301.3797 -411.8305 -3301.6597 C -411.8305 -3301.9397 -411.6105 -3302.1597 -411.3305 -3302.1597 L -405.8305 -3302.1597 L -405.8305 -3307.6597 C -405.8305 -3307.9397 -405.6105 -3308.1597 -405.3305 -3308.1597 C -405.0505 -3308.1597 -404.8305 -3307.9397 -404.8305 -3307.6597 Z" fill="#e3e6e1"/>
      </g>
    </g>
  </g>
</svg>

<svg height="25" viewBox="-417.83 -3314.16 25 25" width="25" xmlns="http://www.w3.org/2000/svg"><g fill="none"><circle cx="-405.33" cy="-3301.66" fill="#666" r="12"/><circle cx="-405.33" cy="-3301.66" r="12" stroke="#fff" stroke-linecap="round" stroke-linejoin="round" stroke-width=".25"/><path d="m-404.8305-3302.1597h5.5c.28 0 .5.22.5.5s-.22.5-.5.5h-5.5v5.5c0 .28-.22.5-.5.5s-.5-.22-.5-.5v-5.5h-5.5c-.28 0-.5-.22-.5-.5s.22-.5.5-.5h5.5v-5.5c0-.28.22-.5.5-.5s.5.22.5.5z" fill="#e3e6e1"/></g></svg>
